X: 21002
T: the Cries of Edinburgh
%R: slip-jig
B: James Oswald "The Caledonian Pocket Companion" v.2 p.100 #2
Z: 2019 John Chambers <jc:trillian.mit.edu>
M: 9/8
L: 1/8
K: G
"_Moderately"g |\
dBG AGA dBg | dBG AGA B2 :: f | gfg agf edB |\
gfg afd g2d | gfg agf efg | dBG TAGA B2 :|
|: g |\
G2g TB2g AAg | GgG TAGA B2 :: f | gGg fed TedB |\
gBg ada b2a | (g/a/b)a gfg efg | GgG TAGA B2 :|
